img/home/icons/usp-4.svg

<svg height="75" viewBox="0 0 52 75" width="52" xmlns="http://www.w3.org/2000/svg" xmlns:xlink="http://www.w3.org/1999/xlink"><mask id="a" fill="#fff"><path d="m0 0h52v75h-52z" fill="#fff" fill-rule="evenodd"/></mask><path d="m6.90006213 35.8735376c-.09212255-.0036966-.49597291-.0443589-.54808263-.0443589-.38151762-.0628417-.755591-.162649-1.12035907-.292029.0241938 0-.37128178-.1737388-.45968221-.2227183-.07537299-.0425106-.34708798-.2384288-.41036408-.2753945-.12469112-.1099729-.24472959-.2254908-.35825435-.3474776-.01954115-.0212552-.05490132-.0637658-.08653936-.1035039-.0632761-.0924143-.12469113-.1866768-.18238404-.2827876-.0604845-.0998074-.11073316-.2023872-.16284288-.304967l-.00651372-.0120139c-.00372212-.0120138-.00744425-.0212553-.01395796-.0360415-.08840043-.2365805-.15074599-.4814783-.20378624-.7254519-.00837478-.0369657-.03163805-.1839043-.04187389-.2430495-.00744425-.0933384-.01488849-.1848285-.02047168-.2772427-.02233274-.356719-.00651371-.7152863.02047168-1.0720053.02605486-.3687328.02233274-.2948014.11166369-.7614934.07630353-.3927605.17587032-.7799762.2810203-1.1653437.20657784-.7624175.49225079-1.5544076.77513215-2.1735831.62066403-1.3612618 1.44511431-2.6236405 2.32632697-3.6346523.96030777-1.1015779 1.9010744-1.9028094 2.98049011-2.6097784.57506798-.376126 1.17991308-.7041966 1.80150758-.9962256.0167496-.0092414.2484517-.1108971.2772982-.1256834.150746-.0609934.3024225-.1182902.454099-.1737388.3228942-.1182902.6523021-.2180976.9826405-.3095877.3210332-.0877935.6457884-.1571042.9724047-.2171735.0353602-.0073931.1972725-.0304967.257757-.0406622.1228301-.0138622.2456602-.0249519.3694208-.0351175-.9472804 4.9866729-1.8936302 9.9714974-2.8409105 14.9572461-.1814535.1284558-.3703513.2476702-.5611101.363188-.2084389.1256834-.4233915.2375046-.6402052.3456293-.1098026.0545244-.2214663.1044281-.3321995.15618-.0604845.0240277-.120969.0471313-.1814535.0693107-.4661959.1783595-.94728032.3132843-1.43487845.4232573-.18238404.0406623-.36849019.0739314-.55366582.1044281-.05583185.0055448-.19075881.0240277-.23449376.0286484-.16284289.0166346-.3266163.0249518-.49038972.0332691-.24100748.0120139-.48387601.0092415-.72581402.0009242m7.59499227.6931068c.257757-.1663456.4661959-.3992295.5759986-.6838654.0074442-.0166346.0148885-.0332691.0204717-.0499037.001861-.0073931.0046526-.0138621.0074442-.0212553.0474571-.1349248.0790951-.2763186.089331-.4204848 1.0840683-5.7065798 2.1672062-11.4122355 3.2512745-17.1188153.150746-.7919901-.2112305-1.861223-1.1473444-2.0063133-5.7153201-.8871768-11.14403674 2.6957236-14.27899497 7.2046147-2.79252289 4.0135508-5.29285912 12.10257.49132026 14.8629836 3.51647584 1.6782427 8.06304931.6533687 10.99049911-1.7669605m21.9102779 15.3749585c-.0241938 6.4043074-.0511791 12.8095389-.0763035 19.2147704 0 .1672698-.0009305.337312-.001861.5073542-.0316381.019407-.0483876.038814-.0102359.038814-.061415.0046207-.1265522.0055449-.1898283.0055449-.3712817-.0018483-.7434941-.0027725-1.1147758-.0036966-.8225893-.0018483-1.6442479-.0046207-2.4659066-.0073931-.0884005 0-.1358575.0027724-.1600513.0046207.0055832-.0036966.0055832-.0083173-.0037222-.0166346v-16.5439987c0-.7661141.2447296-2.2863285-.2633402-2.9535593l-5.7162506-7.5086577c-.499695-.6561411-1.2813409-1.0174809-2.0639173-.6773964-.7462857.1617249-1.2320227.8243351-1.2887851 1.5950699-.226119 3.1088153-.4531685 6.2176306-.680218 9.3273701-2.7748428 5.6021517-5.5515467 11.2024551-8.3263895 16.8055309-.0093053.0175588-.0186106.0360416-.0279159.0545245-.0772341-.0175588-.120969-.0397382-.2214664-.0887177-.8598104-.4361953-1.7186903-.8714664-2.5794313-1.3067375-.1088721-.0554485-.2186747-.1099729-.3266163-.1654215-.0744425-.0378898-.2037863-.1376972-.2503128-.1654215.1702871-.3428569.3396437-.6847896.5090003-1.0276464l5.3775375-10.844812c.3675596-.7420864.7360498-1.4841729 1.102679-2.2253351.0325685-.0628417.0586234-.1266075.0818867-.1922217.1768008-.266153.2866034-.5868304.3275468-.9296873.6271777-5.2851708 1.253425-10.57219 1.8796722-15.858285.6076366.0767039 1.2134121.1534077 1.8191877.2301115 2.0964858.3326913 4.1920412.6653826 6.2875965.9971498 2.794384 3.9109709 5.5887679 7.8219419 8.3822213 11.7347612m-25.9087687 18.401525c.013958-.0286484.0279159-.0572968.0418739-.0850211.0176801-.0341933.0344297-.0683865.0511792-.1025798-.0074442.0748555-.0632761.1256834-.0930531.1876009m12.5947342-50.6263733c.029777-.0101656.0521098-.019407.0697898-.025876-.0120969.0073931-.0167495.0157104.0037222.019407.257757.0480554.5164446.097035.7751321.1460145 1.0198618.1903734 2.0397235.3807467 3.0595852.5720442.8049092.1506352 1.6088878.3012705 2.4137969.4528298.0418739.0073932.0846783.0157104.1265522.0240277.241938.045283.1600513.0083173.3024225.090566-.5946092 3.3712718-1.1892183 6.7416194-1.7847581 10.1138153-.3238247 1.8381194-.6485799 3.6762388-.9724046 5.5152823-1.5539864-.1959182-3.1070423-.3936847-4.6610287-.590527l-2.0676394-.3280706c.9109896-5.3295297 1.8229098-10.6599835 2.7348299-15.9895132m-.0744424.0249518-.0009306.0018483c-.0027916.0009242-.0037221.0009242-.0065137.0027725.0027916-.0018483.0046527-.0027725.0074443-.0046208m6.8328875 1.212475c-.0009305.0036965-.0009305.006469-.0009305.006469-.0269854-.0378899-.0409433-.0693107.0009305-.006469m21.9326107 4.1817447c-.3908229-.6635343-1.1454834-.9139769-1.8461731-.7365416-.0009305-.6145547-.0037221-1.2272612-.0046526-1.8418159-.0046527-2.1042724-3.2894264-2.1051966-3.2847737 0 .0027916 1.1662678.0055832 2.3306873.0074442 3.4969551-2.978629 1.556256-5.9591191 3.1115878-8.9377482 4.6678437-1.558639-3.6004591-3.1144865-7.1990699-4.6721951-10.799529-.0269854-.0600693-.0595539-.116442-.0949141-.1709664-.4215304-1.1524057-1.7307873-1.8427401-2.8725485-2.056217l-2.7338995-.5128991c-1.9773779-.369657-4.912272-1.4296484-6.5630336.1681939-.9640299.9324598-.9938069 2.3001907-1.2059679 3.5394657-.3340606 1.9527131-.6681211 3.9072744-1.0021817 5.8590634-.5685543 3.327837-1.1380392 6.6529017-1.7065935 9.9798146-.0325685.1922216-.0390823.3724294-.0260548.5433958-.0074443.045283-.0148885.0905659-.0214022.1367731-.6662601 5.6187862-1.3315896 11.2366484-1.9978496 16.8545105-.0102359.0175587-.0204717.0332691-.0288465.0489796-1.4190594 2.8620692-2.8371884 5.7241385-4.2571783 8.5862078-.8086313 1.6320356-1.61726255 3.263147-2.42682434 4.8961068l-.44479371.8964182c-.80770073 1.6274149-.0390823 3.5357691 1.56794437 4.3490145 1.96714208.9953015 4.29905228 2.7345376 6.52953458 1.5599525 1.0328891-.5443199 1.5074598-2.0053891 1.9922664-2.984056 1.8387288-3.7104321 3.6765271-7.4217883 5.5161865-11.1322203.6904538-1.3936069 1.3809077-2.7881379 2.0713615-4.1826689.1042195-.2070079.166565-.4260297.1916894-.6459756.0576929-.1626491.0958446-.3354637.1088721-.5156715.1349269-1.8519815.2707844-3.7048872.4057114-5.5577929l3.0512104 4.0070818v18.2139241c0 1.504504 1.055222 2.5866748 2.4407823 3.0237942.8877264.2781669 2.0322792.1367731 2.9479215.1386214.9751963.0036966 2.0992775.1284558 3.0195724-.246746 1.253425-.5128991 2.1011386-1.5479387 2.1067217-2.9295317l.0381518-9.7118133.0409434-10.3503958c.0037221-.9564875-.511792-1.5202144-1.0403335-2.2604525-1.1231506-1.5738146-2.2481623-3.1467051-3.371313-4.7195956-1.2031763-1.6847118-2.4063526-3.3684994-3.6085984-5.052287-.3498796-.4897955-.8598105-1.4176345-1.4506975-2.0164789.4606127-2.60793.9202949-5.2167843 1.3809077-7.8265626.2112305-1.1976887.422461-2.3963015.634622-3.5949143 1.0877905 2.5145917 2.175581 5.0301075 3.264302 7.5465475.3647681.842818 1.5325842.9583358 2.2481624.5849822 2.9711848-1.5516352 5.9433001-3.1032704 8.9144849-4.6549057.0065137 2.5284539.0130274 5.0569077.0186106 7.5844374.0195412 8.6250217.0400129 17.2500435.059554 25.8750653.0083748 3.3823614.0167496 6.7647229.0241938 10.1461602.0055832 2.1042725 3.2903569 2.1042725 3.2847737 0-.0111664-4.9201345-.0214022-9.8402691-.0334991-14.7613278-.0204717-8.6240976-.0409434-17.2491194-.0604845-25.8741411l-.0111664-4.6835541 1.2487723-.6524446c.7918817-.4130917 1.0263755-1.4906418.589026-2.2318041m-22.7784631-21.88923878c2.5747786-.15987665 4.7875809 1.83627111 4.94391 4.31482124.1619124 2.55895054-1.8480341 4.75563724-4.3446482 4.91181724-2.5747787.1608008-4.7875809-1.8362711-4.9439101-4.31574534-.0846783-2.56079882 1.7903412-4.75101649 4.3446483-4.91089314m-7.6145335 5.10219063c.2959088 3.43596175 2.6659707 6.36641755 6.0949767 7.18428365 3.4662272.8261834 7.1315879-.8631491 8.8177097-3.9553298 1.7010103-3.11713261.9872932-7.09094527-1.6033045-9.49741229-2.6054862-2.41940501-6.6532952-2.75394459-9.656118-.87054222-2.3654093 1.48324868-3.7602749 4.18451715-3.6681524 6.94770317.0018611.06653825.0074443.12937994.0148885.19129749" fill="#fff" fill-rule="evenodd" mask="url(#a)"/></svg>

<?xml version="1.0" encoding="UTF-8"?>
<svg width="52px" height="75px" viewBox="0 0 52 75" version="1.1" xmlns="http://www.w3.org/2000/svg" xmlns:xlink="http://www.w3.org/1999/xlink">
    <!-- Generator: Sketch 51.3 (57544) - http://www.bohemiancoding.com/sketch -->
    <title>usp-4</title>
    <desc>Created with Sketch.</desc>
    <defs>
        <polygon id="path-1" points="0 0 52 0 52 75 0 75"></polygon>
    </defs>
    <g id="Home-&amp;-Quote" stroke="none" stroke-width="1" fill="none" fill-rule="evenodd">
        <g id="TT-Home-01" transform="translate(-1147.000000, -645.000000)">
            <g id="usp-4" transform="translate(1147.000000, 645.000000)">
                <mask id="mask-2" fill="white">
                    <use xlink:href="#path-1"></use>
                </mask>
                <g id="Clip-2"></g>
                <path d="M6.90006213,35.8735376 C6.80793958,35.869841 6.40408922,35.8291787 6.3519795,35.8291787 C5.97046188,35.766337 5.5963885,35.6665297 5.23162043,35.5371497 C5.25581423,35.5371497 4.86033865,35.3634109 4.77193822,35.3144314 C4.69656523,35.2719208 4.42485024,35.0760026 4.36157414,35.0390369 C4.23688302,34.929064 4.11684455,34.8135461 4.00331979,34.6915593 C3.98377864,34.6703041 3.94841847,34.6277935 3.91678043,34.5880554 C3.85350433,34.4956411 3.7920893,34.4013786 3.73439639,34.3052678 C3.67391189,34.2054604 3.62366323,34.1028806 3.57155351,34.0003008 L3.56503979,33.9882869 C3.56131767,33.9762731 3.55759554,33.9670316 3.55108183,33.9522454 C3.4626814,33.7156649 3.40033584,33.4707671 3.34729559,33.2267935 C3.33892081,33.1898278 3.31565754,33.0428892 3.3054217,32.983744 C3.29797745,32.8904056 3.29053321,32.7989155 3.28495002,32.7065013 C3.26261728,32.3497823 3.27843631,31.991215 3.3054217,31.634496 C3.33147656,31.2657632 3.32775444,31.3396946 3.41708539,30.8730026 C3.49338892,30.4802421 3.59295571,30.0930264 3.69810569,29.7076589 C3.90468353,28.9452414 4.19035648,28.1532513 4.47323784,27.5340758 C5.09390187,26.172814 5.91835215,24.9104353 6.79956481,23.8994235 C7.75987258,22.7978456 8.70063921,21.9966141 9.78005492,21.2896451 C10.3551229,20.9135191 10.959968,20.5854485 11.5815625,20.2934195 C11.5983121,20.2841781 11.8300142,20.1825224 11.8588607,20.1677361 C12.0096067,20.1067427 12.1612832,20.0494459 12.3129597,19.9939973 C12.6358539,19.8757071 12.9652618,19.7758997 13.2956002,19.6844096 C13.6166334,19.5966161 13.9413886,19.5273054 14.2680049,19.4672361 C14.3033651,19.459843 14.4652774,19.4367394 14.5257619,19.4265739 C14.648592,19.4127117 14.7714221,19.401622 14.8951827,19.3914564 C13.9479023,24.3781293 13.0015525,29.3629538 12.0542722,34.3487025 C11.8728187,34.4771583 11.6839209,34.5963727 11.4931621,34.7118905 C11.2847232,34.8375739 11.0697706,34.9493951 10.8529569,35.0575198 C10.7431543,35.1120442 10.6314906,35.1619479 10.5207574,35.2136998 C10.4602729,35.2377275 10.3997884,35.2608311 10.3393039,35.2830105 C9.873108,35.46137 9.39202358,35.5962948 8.90442545,35.7062678 C8.72204141,35.7469301 8.53593526,35.7801992 8.35075963,35.8106959 C8.29492778,35.8162407 8.16000082,35.8347236 8.11626587,35.8393443 C7.95342298,35.8559789 7.78964957,35.8642961 7.62587615,35.8726134 C7.38486867,35.8846273 7.14200014,35.8818549 6.90006213,35.8735376 M14.4950544,36.5666444 C14.7528114,36.4002988 14.9612503,36.1674149 15.071053,35.882779 C15.0784972,35.8661444 15.0859415,35.8495099 15.0915247,35.8328753 C15.0933857,35.8254822 15.0961773,35.8190132 15.0989689,35.81162 C15.146426,35.6766952 15.178064,35.5353014 15.1882999,35.3911352 C16.2723682,29.6845554 17.3555061,23.9788997 18.4395744,18.2723199 C18.5903204,17.4803298 18.2283439,16.4110969 17.29223,16.2660066 C11.5769099,15.3788298 6.14819326,18.9617302 3.01323503,23.4706213 C0.220712139,27.4841721 -2.27962409,35.5731913 3.50455529,38.3336049 C7.02103113,40.0118476 11.5676046,38.9869736 14.4950544,36.5666444 M36.4053323,51.9416029 C36.3811385,58.3459103 36.3541532,64.7511418 36.3290288,71.1563733 C36.3290288,71.3236431 36.3280983,71.4936853 36.3271678,71.6637275 C36.2955297,71.6831345 36.2787802,71.7025415 36.3169319,71.7025415 C36.2555169,71.7071622 36.1903797,71.7080864 36.1271036,71.7080864 C35.7558219,71.7062381 35.3836095,71.7053139 35.0123278,71.7043898 C34.1897385,71.7025415 33.3680799,71.6997691 32.5464212,71.6969967 C32.4580207,71.6969967 32.4105637,71.6997691 32.3863699,71.7016174 C32.3919531,71.6979208 32.3919531,71.6933001 32.3826477,71.6849828 L32.3826477,55.1409841 C32.3826477,54.37487 32.6273773,52.8546556 32.1193075,52.1874248 L26.4030569,44.6787671 C25.9033619,44.022626 25.121716,43.6612862 24.3391396,44.0013707 C23.5928539,44.1630956 23.1071169,44.8257058 23.0503545,45.5964406 C22.8242355,48.7052559 22.597186,51.8140712 22.3701365,54.9238107 C19.5952937,60.5259624 16.8185898,66.1262658 14.043747,71.7293416 C14.0344417,71.7469004 14.0251364,71.7653832 14.0158311,71.7838661 C13.938597,71.7663073 13.8948621,71.7441279 13.7943647,71.6951484 C12.9345543,71.2589531 12.0756744,70.823682 11.2149334,70.3884109 C11.1060613,70.3329624 10.9962587,70.278438 10.8883171,70.2229894 C10.8138746,70.1850996 10.6845308,70.0852922 10.6380043,70.0575679 C10.8082914,69.714711 10.977648,69.3727783 11.1470046,69.0299215 L16.5245421,58.1851095 C16.8921017,57.4430231 17.2605919,56.7009366 17.6272211,55.9597744 C17.6597896,55.8969327 17.6858445,55.8331669 17.7091078,55.7675527 C17.8859086,55.5013997 17.9957112,55.1807223 18.0366546,54.8378654 C18.6638323,49.5526946 19.2900796,44.2656754 19.9163268,38.9795804 C20.5239634,39.0562843 21.1297389,39.1329881 21.7355145,39.2096919 C23.8320003,39.5423832 25.9275557,39.8750745 28.023111,40.2068417 C30.817495,44.1178126 33.6118789,48.0287836 36.4053323,51.9416029 M10.4965636,70.3431279 C10.5105216,70.3144795 10.5244795,70.2858311 10.5384375,70.2581068 C10.5561176,70.2239135 10.5728672,70.1897203 10.5896167,70.155527 C10.5821725,70.2303825 10.5263406,70.2812104 10.4965636,70.3431279 M23.0912978,19.7167546 C23.1210748,19.706589 23.1434076,19.6973476 23.1610876,19.6908786 C23.1489907,19.6982717 23.1443381,19.706589 23.1648098,19.7102856 C23.4225668,19.758341 23.6812544,19.8073206 23.9399419,19.8563001 C24.9598037,20.0466735 25.9796654,20.2370468 26.9995271,20.4283443 C27.8044363,20.5789795 28.6084149,20.7296148 29.413324,20.8811741 C29.4551979,20.8885673 29.4980023,20.8968845 29.5398762,20.9052018 C29.7818142,20.9504848 29.6999275,20.9135191 29.8422987,20.9957678 C29.2476895,24.3670396 28.6530804,27.7373872 28.0575406,31.1095831 C27.7337159,32.9477025 27.4089607,34.7858219 27.085136,36.6248654 C25.5311496,36.4289472 23.9780937,36.2311807 22.4241073,36.0343384 L20.3564679,35.7062678 C21.2674575,30.3767381 22.1793777,25.0462843 23.0912978,19.7167546 M23.0168554,19.7417064 L23.0159248,19.7435547 C23.0131332,19.7444789 23.0122027,19.7444789 23.0094111,19.7463272 C23.0122027,19.7444789 23.0140638,19.7435547 23.0168554,19.7417064 M29.8497429,20.9541814 C29.8488124,20.9578779 29.8488124,20.9606504 29.8488124,20.9606504 C29.821827,20.9227605 29.8078691,20.8913397 29.8497429,20.9541814 M51.7823536,25.1359261 C51.3915307,24.4723918 50.6368702,24.2219492 49.9361805,24.3993845 C49.93525,23.7848298 49.9324584,23.1721233 49.9315279,22.5575686 C49.9268752,20.4532962 46.6421015,20.452372 46.6467542,22.5575686 C46.6495458,23.7238364 46.6523374,24.8882559 46.6541984,26.0545237 C43.6755694,27.6107797 40.6950793,29.1661115 37.7164502,30.7223674 C36.1578112,27.1219083 34.6019637,23.5232975 33.0442551,19.9228384 C33.0172697,19.8627691 32.9847012,19.8063964 32.949341,19.751872 C32.5278106,18.5994663 31.2185537,17.9091319 30.0767925,17.695655 L27.342893,17.1827559 C25.3655151,16.8130989 22.430621,15.7531075 20.7798594,17.3509498 C19.8158295,18.2834096 19.7860525,19.6511405 19.5738915,20.8904155 C19.2398309,22.8431286 18.9057704,24.7976899 18.5717098,26.7494789 C18.0031555,30.0773159 17.4336706,33.4023806 16.8651163,36.7292935 C16.8325478,36.9215151 16.826034,37.1017229 16.8390615,37.2726893 C16.8316172,37.3179723 16.824173,37.3632552 16.8176593,37.4094624 C16.1513992,43.0282486 15.4860697,48.6461108 14.8198097,54.2639729 C14.8095738,54.2815316 14.799338,54.297242 14.7909632,54.3129525 C13.3719038,57.1750217 11.9537748,60.037091 10.5337849,62.8991603 C9.7251536,64.5311959 8.91652235,66.1623073 8.10696056,67.7952671 L7.66216685,68.6916853 C6.85446612,70.3191002 7.62308455,72.2274544 9.23011122,73.0406998 C11.1972533,74.0360013 13.5291635,75.7752374 15.7596458,74.6006523 C16.7925349,74.0563324 17.2671056,72.5952632 17.7519122,71.6165963 C19.590641,67.9061642 21.4284393,64.194808 23.2680987,60.484376 C23.9585525,59.0907691 24.6490064,57.6962381 25.3394602,56.3017071 C25.4436797,56.0946992 25.5060252,55.8756774 25.5311496,55.6557315 C25.5888425,55.4930824 25.6269942,55.3202678 25.6400217,55.14006 C25.7749486,53.2880785 25.9108061,51.4351728 26.0457331,49.5822671 L29.0969435,53.5893489 L29.0969435,71.803273 C29.0969435,73.307777 30.1521655,74.3899478 31.5377258,74.8270672 C32.4254522,75.1052341 33.570005,74.9638403 34.4856473,74.9656886 C35.4608436,74.9693852 36.5849248,75.0941444 37.5052197,74.7189426 C38.7586447,74.2060435 39.6063583,73.1710039 39.6119414,71.7894109 L39.6500932,62.0775976 L39.6910366,51.7272018 C39.6947587,50.7707143 39.1792446,50.2069874 38.6507031,49.4667493 C37.5275525,47.8929347 36.4025408,46.3200442 35.2793901,44.7471537 C34.0762138,43.0624419 32.8730375,41.3786543 31.6707917,39.6948667 C31.3209121,39.2050712 30.8109812,38.2772322 30.2200942,37.6783878 C30.6807069,35.0704578 31.1403891,32.4616035 31.6010019,29.8518252 C31.8122324,28.6541365 32.0234629,27.4555237 32.2356239,26.2569109 C33.3234144,28.7715026 34.4112049,31.2870184 35.4999259,33.8034584 C35.864694,34.6462764 37.0325101,34.7617942 37.7480883,34.3884406 C40.7192731,32.8368054 43.6913884,31.2851702 46.6625732,29.7335349 C46.6690869,32.2619888 46.6756006,34.7904426 46.6811838,37.3179723 C46.700725,45.942994 46.7211967,54.5680158 46.7407378,63.1930376 C46.7491126,66.575399 46.7574874,69.9577605 46.7649316,73.3391978 C46.7705148,75.4434703 50.0552885,75.4434703 50.0497053,73.3391978 C50.0385389,68.4190633 50.0283031,63.4989287 50.0162062,58.57787 C49.9957345,49.9537724 49.9752628,41.3287506 49.9557217,32.7037289 L49.9445553,28.0201748 L51.1933276,27.3677302 C51.9852093,26.9546385 52.2197031,25.8770884 51.7823536,25.1359261 M29.0038905,3.24668732 C31.5786691,3.08681067 33.7914714,5.08295843 33.9478005,7.56150856 C34.1097129,10.1204591 32.0997664,12.3171458 29.6031523,12.4733258 C27.0283736,12.6341266 24.8155714,10.6370547 24.6592422,8.15758046 C24.5745639,5.59678164 26.4495834,3.40656397 29.0038905,3.24668732 M21.389357,8.34887795 C21.6852658,11.7848397 24.0553277,14.7152955 27.4843337,15.5331616 C30.9505609,16.359345 34.6159216,14.6700125 36.3020434,11.5778318 C38.0030537,8.46069919 37.2893366,4.48688653 34.6987389,2.08041951 C32.0932527,-0.338985504 28.0454437,-0.673525081 25.0426209,1.20987729 C22.6772116,2.69312597 21.282346,5.39439444 21.3744685,8.15758046 C21.3763296,8.22411871 21.3819128,8.2869604 21.389357,8.34887795" id="Fill-1" fill="#FFFFFF" mask="url(#mask-2)"></path>
            </g>
        </g>
    </g>
</svg>
